Sardi Mono Papirus Dark/16x16/actions/view-form-action.svg

<?xml version="1.0" encoding="UTF-8" standalone="no"?>
<svg xmlns="http://www.w3.org/2000/svg" width="16" height="16" viewBox="0 0 16 16">
 <defs>
  <style type="text/css" id="current-color-scheme">
   .ColorScheme-Text { color:#d3dae3; }
  </style>
 </defs>
 <path style="fill:currentColor;opacity:1" class="ColorScheme-Text" d="M 2 1 C 2 1 1.9237594 1.0041375 1.8183594 1.0234375 C 1.6141594 1.0536375 1.4597031 1.1268625 1.3457031 1.2265625 C 1.3236031 1.2434625 1.30225 1.26165 1.28125 1.28125 C 1.26165 1.30225 1.2435625 1.3236031 1.2265625 1.3457031 C 1.1269625 1.4597031 1.0536375 1.6141594 1.0234375 1.8183594 C 1.0041375 1.9237594 1 2 1 2 L 1 14 C 1 15 2 15 2 15 L 14 15 C 14 15 15 15 15 14 L 15 2 C 15 2 14.995563 1.9237594 14.976562 1.8183594 C 14.945562 1.6141594 14.873437 1.4597031 14.773438 1.3457031 C 14.757437 1.3236031 14.73775 1.30225 14.71875 1.28125 C 14.69775 1.26165 14.676297 1.2434625 14.654297 1.2265625 C 14.540297 1.1268625 14.385641 1.0536375 14.181641 1.0234375 C 14.075641 1.0041375 14 1 14 1 L 2 1 z M 3 4 L 6 4 L 6 10 L 3 10 L 3 4 z M 7 5 L 9 5 L 9 6 L 7 6 L 7 5 z M 11 5 L 11 8 L 13 8 L 10 12 L 10 9 L 8 9.0820312 L 11 5 z"/>
</svg>

<?xml version="1.0" encoding="UTF-8" standalone="no"?>
<!-- Created with Inkscape (http://www.inkscape.org/) -->
<svg id="svg7384" xmlns:rdf="http://www.w3.org/1999/02/22-rdf-syntax-ns#" style="enable-background:new" xmlns="http://www.w3.org/2000/svg" xmlns:osb="http://www.openswatchbook.org/uri/2009/osb" height="16" width="16" version="1.1" xmlns:cc="http://creativecommons.org/ns#" xmlns:dc="http://purl.org/dc/elements/1.1/">
 <metadata id="metadata90">
  <rdf:RDF>
   <cc:Work rdf:about="">
    <dc:format>image/svg+xml</dc:format>
    <dc:type rdf:resource="http://purl.org/dc/dcmitype/StillImage"/>
    <dc:title>Paper Symbolic Icon Theme</dc:title>
   </cc:Work>
  </rdf:RDF>
 </metadata>
 <title id="title8473">Paper Symbolic Icon Theme</title>
 <defs id="defs7386">
  <style id="current-color-scheme" type="text/css">.ColorScheme-Text {
        color:#4d4d4d;
      }
      .ColorScheme-Background {
        color:#eff0f1;
      }
      .ColorScheme-Highlight {
        color:#3daee9;
      }
      .ColorScheme-ViewText {
        color:#31363b;
      }
      .ColorScheme-ViewBackground {
        color:#fcfcfc;
      }
      .ColorScheme-ViewHover {
        color:#93cee9;
      }
      .ColorScheme-ViewFocus{
        color:#3daee9;
      }
      .ColorScheme-ButtonText {
        color:#31363b;
      }
      .ColorScheme-ButtonBackground {
        color:#eff0f1;
      }
      .ColorScheme-ButtonHover {
        color:#93cee9;
      }
      .ColorScheme-ButtonFocus{
        color:#3daee9;
      }</style>
 </defs>
 <g id="layer12" transform="translate(-585 -41)">
  <path id="path4236" opacity=".72" style="color:#ffffff;text-indent:0;block-progression:tb;text-decoration-line:none;enable-background:new;text-transform:none" d="m2 1s-0.0762 0.0041-0.1816 0.0234c-0.2042 0.0302-0.3587 0.1035-0.4727 0.2032-0.0221 0.0169-0.0435 0.035-0.0645 0.0546-0.0196 0.021-0.0376 0.0424-0.0546 0.0645-0.0996 0.114-0.173 0.2685-0.2032 0.4727-0.0193 0.1054-0.0234 0.1816-0.0234 0.1816v7 5c0 1 1 1 1 1h5 2 5s1 0 1-1v-5-7s-0.004-0.0762-0.023-0.1816c-0.031-0.2042-0.104-0.3587-0.204-0.4727-0.016-0.0221-0.035-0.0435-0.054-0.0645-0.021-0.0196-0.043-0.0377-0.065-0.0546-0.114-0.0997-0.268-0.173-0.472-0.2032-0.106-0.0193-0.182-0.0234-0.182-0.0234h-12zm1 3h2 1v1 1 2 1 1h-1-2v-2-2-2zm4 1h2v1h-2v-1zm4 0v3h2l-3 4v-3l-2 0.082 3-4.082z" transform="translate(585 41)" fill="#fff"/>
  <rect id="rect4035" style="color:#4d4d4d" class="ColorScheme-Text" height="11" width="0" y="45.285" x="561.1" fill="currentColor"/>
  <rect id="rect4035-5" style="color:#4d4d4d" class="ColorScheme-Text" height="11" width="0" y="43.234" x="579.14" fill="currentColor"/>
  <rect id="rect4035-8" style="color:#4d4d4d" class="ColorScheme-Text" height="11" width="0" y="45.285" x="561.1" fill="currentColor"/>
  <rect id="rect4035-59" style="color:#4d4d4d" class="ColorScheme-Text" height="11" width="0" y="45.285" x="561.1" fill="currentColor"/>
  <rect id="rect4035-1" style="color:#4d4d4d" class="ColorScheme-Text" height="11" width="0" y="45.285" x="574.1" fill="currentColor"/>
  <rect id="rect4035-2" style="color:#4d4d4d" class="ColorScheme-Text" height="11" width="0" y="45.551" x="567.96" fill="currentColor"/>
  <rect id="rect4035-5-6" style="color:#4d4d4d" class="ColorScheme-Text" height="11" width="0" y="43.5" x="586" fill="currentColor"/>
  <rect id="rect4035-8-0" style="color:#4d4d4d" class="ColorScheme-Text" height="11" width="0" y="45.551" x="567.96" fill="currentColor"/>
  <rect id="rect4035-59-5" style="color:#4d4d4d" class="ColorScheme-Text" height="11" width="0" y="45.551" x="567.96" fill="currentColor"/>
  <text id="text3781" style="color:#4d4d4d;word-spacing:0px;letter-spacing:0px" line-height="125%" font-size="9px" class="ColorScheme-Text" y="58.308594" x="583.39539" font-family="Sans" xml:space="preserve" fill="currentColor"><tspan id="tspan3783" x="583.39539" y="58.308594"/></text>
  <text id="text3781-8" style="color:#4d4d4d;word-spacing:0px;letter-spacing:0px" line-height="125%" font-size="9px" class="ColorScheme-Text" y="52.445251" x="584.13208" font-family="Sans" xml:space="preserve" fill="currentColor"><tspan id="tspan3783-1" x="584.13208" y="52.445251"/></text>
  <text id="text3781-4" style="color:#4d4d4d;word-spacing:0px;letter-spacing:0px" line-height="125%" font-size="9px" class="ColorScheme-Text" y="59.308594" x="577.39539" font-family="Sans" xml:space="preserve" fill="currentColor"><tspan id="tspan3783-13" x="577.39539" y="59.308594"/></text>
  <rect id="rect4035-9" style="color:#4d4d4d" class="ColorScheme-Text" height="11" width="0" y="45.551" x="567.96" fill="currentColor"/>
  <rect id="rect4035-5-7" style="color:#4d4d4d" class="ColorScheme-Text" height="11" width="0" y="43.5" x="586" fill="currentColor"/>
  <rect id="rect4035-9-0" style="color:#4d4d4d" class="ColorScheme-Text" height="11" width="0" y="45.551" x="547.96" fill="currentColor"/>
  <rect id="rect4035-5-7-5" style="color:#4d4d4d" class="ColorScheme-Text" height="11" width="0" y="43.5" x="566" fill="currentColor"/>
 </g>
</svg>
